X:105
T:149th Psalm. JMP.105
M:3/4
L:1/4
S:John Miller MS. Perth, 1799.(for the fife)
R:.psalm
O:Scotland
A:Perth
N:Tune today used for â€˜Oh worship the king/all glorious aboveâ€™. If I
N:possessed â€˜Hymns A & Mâ€™ I could look it up. But I donâ€™t
H:1799
Z:vmp.C. Graeb
K:G major
D | GGA | B2d â€œBar line missingâ€ | GA{G}F | G2 || A |\
BAG | F2 G | A (G/F/) (E.D) â€œBar line missingâ€ | D2 ||!
F | GAB | GEB | BAG | d2 ||D | EFG | ADB | EAF | G2 |]

